X: 365
T: Shang minxiao
%%abc-version 2.0
%%abcx-abcm2ps-target-version 5.9.1 (29 Sep 2008)
%%abc-creator hum2abc beta
%%abcx-conversion-date 2013/10/02 07:52:30
%%abc-edited-by Helmut Schaffrath
%%humdrum-veritas 3787492026
%%humdrum-veritas-data 2986201237
%%continueall 1
%%barnumbers 0
L: 1/8
M: 2/4
K: G
G F E D [I:setbarnb 1]| 
d> e B d | 
g f e/ d/ B | 
d> BA2 | 
d A/ B< d e/ | 
g f e d | 
d A/ B/ A E | 
D4 | 
G D/ E/G2 | 
B A/ B/ d B | 
A F E D | 
E4 | 
d> d B d | 
g f e d | 
d G A E | 
d A/ B/ A E | 
D4 |]  



